icons/anticlockwise-2-line.svg

<svg xmlns="http://www.w3.org/2000/svg" width="24" height="24" fill="none"><g clip-path="url(#a)"><g><path fill="#121212" d="M13.414 5.99996L15.243 7.82796L13.828 9.24296L9.586 4.99996L13.828 0.756958L15.243 2.17196L13.414 3.99996H16C17.3261 3.99996 18.5979 4.52674 19.5355 5.46442C20.4732 6.40211 21 7.67388 21 8.99996V13H19V8.99996C19 8.20431 18.6839 7.44125 18.1213 6.87864C17.5587 6.31603 16.7956 5.99996 16 5.99996H13.414ZM15 11V21C15 21.2652 14.8946 21.5195 14.7071 21.7071C14.5196 21.8946 14.2652 22 14 22H4C3.73478 22 3.48043 21.8946 3.29289 21.7071C3.10536 21.5195 3 21.2652 3 21V11C3 10.7347 3.10536 10.4804 3.29289 10.2929C3.48043 10.1053 3.73478 9.99996 4 9.99996H14C14.2652 9.99996 14.5196 10.1053 14.7071 10.2929C14.8946 10.4804 15 10.7347 15 11ZM13 12H5V20H13V12Z"/></g></g><defs><clipPath id="a"><rect width="24" height="24" fill="white"/></clipPath></defs></svg>

<svg width="24" height="24" fill="none" xmlns="http://www.w3.org/2000/svg"><g clip-path="url(#a)"><path d="m13.414 6 1.829 1.828-1.415 1.415L9.586 5 13.828.757l1.415 1.415L13.414 4H16a5 5 0 0 1 5 5v4h-2V9a3 3 0 0 0-3-3h-2.586ZM15 11v10a1 1 0 0 1-1 1H4a1 1 0 0 1-1-1V11a1 1 0 0 1 1-1h10a1 1 0 0 1 1 1Zm-2 1H5v8h8v-8Z" /></g><defs><clipPath id="a"><path fill="#fff" d="M0 0h24v24H0z"/></clipPath></defs></svg>
